!!!COM: Bach, Johann Sebastian
!!!OTL@@DE: 349. Ich hab' in Gottes Herz und Sinn
!!!OTL@EN: I have in God's heart and mind
!!!SCA: BWV 103.6
**kern	**kern	**kern	**kern
*staff2	*staff2	*staff1	*staff1
*Iorgan	*Iorgan	*Iorgan	*Iorgan
*>[A,A,B]	*>[A,A,B]	*>[A,A,B]	*>[A,A,B]
*>norep[A,B]	*>norep[A,B]	*>norep[A,B]	*>norep[A,B]
*>A	*>A	*>A	*>A
!bass	!tenor	!alto	!sprno
*clefF4	*clefF4	*clefG2	*clefG2
*k[f#c#]	*k[f#c#]	*k[f#c#]	*k[f#c#]
*met(C)	*met(C)	*met(C)	*met(C)
*M4/4	*M4/4	*M4/4	*M4/4
*MM60	*MM60	*MM60	*MM60
4B/	4B\	4d\	8f#/L
.	.	.	8g/J
=1	=1	=1	=1
4F#\	4A/	4d\	4a/
4G\	4G/	4d\	4b/
8D\L	8F#/L	4d\	4a/
8E\J	8G/J	.	.
8F#\L	8A/L	8d\L	4dd/
8G\J	8B/J	8e\J	.
=2	=2	=2	=2
4A\	4A/	8f#\L	4dd/
.	.	8g\J	.
4AA\	4A/	4e\	4cc#/
4D;\	4A;/	4f#;\	4dd;/
4BB\	4B/	4f#\	4dd/
=3	=3	=3	=3
4F#\	4A#/	8f#\L	4cc#/
.	.	8e\J	.
8G\L	4B/	4d\	4b/
8F#\J	.	.	.
4E\	8B/L	4g\	4ee/
.	8c#/J	.	.
4B\	8d/L	8f#\L	8dd/L
.	8e/J	8g#\J	8cc#/J
=4	=4	=4	=4
2F#\	8f#/L	8a#\	2cc#/
.	8c#/J	4b\	.
.	8f#/L	.	.
.	8e/J	8a#\	.
4BB;\	4d;/	4f#;\	4b;/
=:|!	=:|!	=:|!	=:|!
*>B	*>B	*>B	*>B
8B\L	8d/L	4f#\	4b/
8A\J	8c#/J	.	.
=5	=5	=5	=5
8G#\L	4B/	8e\L	4b/
8F#\J	.	8f#\J	.
4E\	4e/	4g#\	8b/L
.	.	.	16cc#/L
.	.	.	16dd/JJ
8AA\L	8e/L	4a\	8cc#/L
8BB\J	8d/J	.	8b/J
8C#\L	4c#/	4e\	4a/
8D\J	.	.	.
=6	=6	=6	=6
!!linebreak: 2
8E\L	4B/	4e\	4a/
8D\J	.	.	.
4E\	8c#/L	4e\	4g#/
.	8d/J	.	.
4AA;\	4c#;/	4e;\	4a;/
8D\L	8d/L	4f#\	4a/
8E\J	8c#/J	.	.
=7	=7	=7	=7
8D\L	4B/	4f#\	4b/
8C#\J	.	.	.
8BB\L	4e/	4f#\	4cc#/
8AA#\J	.	.	.
4BB\	8d/L	4f#\	4dd/
.	8c#/J	.	.
4C#\	8B/L	4e\	4cc#/
.	8A#/J	.	.
=8	=8	=8	=8
4D\	4f#/	4d\	2b/
4G\	4e/	8c#\L	.
.	.	8B\J	.
4F#;\	4A#;/	4f#;\	4cc#;/
4B\	4B/	8d\L	8f#/L
.	.	8e\J	8g/J
=9	=9	=9	=9
4A\	4c#/	4f#\	4a/
4G\	8d/L	4g\	4b/
.	8e/J	.	.
4F#\	4f#/	8d\L	4a/
.	.	8e\J	.
8E\L	4A/	8f#\L	4dd/
8D\J	.	8g\J	.
=10	=10	=10	=10
8A\L	8A/L	8a\L	4dd/
8G\J	8B/J	8e\J	.
4A\	4A/	8f#\L	4cc#/
.	.	8g\J	.
4D;\	4A;/	4f#;\	4dd;/
4BB\	8A/L	4b\	4dd/
.	8G#/J	.	.
=11	=11	=11	=11
4AA\	4A/	8e\L	4cc#/
.	.	8f#\J	.
8E\L	4B/	8g\L	4b/
8F#\J	.	8a\J	.
8G\L	8B/L	8b\L	4ee/
8A\J	8c#/J	16a\L	.
.	.	16g\JJ	.
4B\	8d/L	4f#\	8dd/L
.	8G#/J	.	8cc#/J
=12	=12	=12	=12
8F#\L	8A#/	8f#\L	2cc#/
8E\J	4B/	8g\J	.
4F#\	.	8f#\L	.
.	8A#/	8e\J	.
4BB;\	4F#;/	4d#;\	4b;/
==	==	==	==
*-	*-	*-	*-
!!!ENC: Craig Stuart Sapp
!!!END: 2004/12/06/
!!chor2scor: -l 2 -s 0.6 -o %b.pmx
